assets/plangrid/mono.svg

<svg viewBox="0 0 24 24" xmlns="http://www.w3.org/2000/svg"><path d="m16.6 0c2.6 0 4.262.009 5.828 1.574 1.562 1.567 1.572 3.22 1.572 5.827v9.2c0 2.6-.01 4.261-1.574 5.828-1.567 1.562-3.219 1.571-5.828 1.571h-9.2c-2.599 0-4.26-.009-5.827-1.574-1.561-1.565-1.571-3.219-1.571-5.827v-9.2c0-2.599.01-4.261 1.574-5.827 1.567-1.562 3.219-1.572 5.826-1.572h9.201zm4.398 11.151c-.428-4.573-4.314-8.149-8.998-8.149-4.971 0-9 4.027-9 8.998 0 4.801 3.752 8.734 8.485 9h7.136c1.313-.003 2.375-1.066 2.379-2.381v-7.47zm-2.285 8.589c-.564 0-1.023-.46-1.023-1.024 0-.566.459-1.024 1.023-1.024.566 0 1.025.458 1.025 1.024 0 .564-.459 1.024-1.025 1.024zm-6.713-.791c-3.837-.004-6.945-3.113-6.949-6.949.004-3.836 3.112-6.945 6.949-6.949 3.836.004 6.945 3.113 6.949 6.949-.004 3.836-3.113 6.945-6.949 6.949z"/></svg>

<svg xmlns="http://www.w3.org/2000/svg" viewBox="0 0 24 24"><path d="M16.6 0c2.6 0 4.262.009 5.828 1.574C23.99 3.141 24 4.794 24 7.401v9.2c0 2.6-.01 4.261-1.574 5.828C20.859 23.991 19.207 24 16.598 24h-9.2c-2.599 0-4.26-.009-5.827-1.574C.01 20.861 0 19.207 0 16.599v-9.2C0 4.8.01 3.138 1.574 1.572 3.141.01 4.793 0 7.4 0zm4.398 11.151C20.57 6.578 16.684 3.002 12 3.002c-4.971 0-9 4.027-9 8.998 0 4.801 3.752 8.734 8.485 9h7.136A2.385 2.385 0 0 0 21 18.619v-7.47zm-2.285 8.589a1.025 1.025 0 0 1 0-2.048 1.024 1.024 0 1 1 0 2.048M12 18.949A6.956 6.956 0 0 1 5.051 12 6.956 6.956 0 0 1 12 5.051 6.956 6.956 0 0 1 18.949 12 6.956 6.956 0 0 1 12 18.949"/></svg>
